public/icons/rive_square.svg

<svg width="100" height="100" viewBox="0 0 100 100" fill="none" xmlns="http://www.w3.org/2000/svg">
<rect width="100" height="100" fill="white"/>
<path fill-rule="evenodd" clip-rule="evenodd" d="M22 25.4417C22 27.3426 23.5576 28.8835 25.4789 28.8835H45.034H54.3111C57.5968 28.8835 60.3026 29.8873 62.4286 31.895C64.5546 33.9027 65.6176 36.484 65.6176 39.6389C65.6176 42.5548 64.5546 44.9449 62.4286 46.8092C60.3026 48.6257 57.5968 49.5339 54.3111 49.5339H41.7806C39.8592 49.5339 38.3017 51.0749 38.3017 52.9757C38.3017 54.8765 39.8592 56.4174 41.7806 56.4174H54.3111H55.6157L68.0819 76.2074C68.855 77.4025 69.9421 78 71.3434 78C72.8896 78 73.9767 77.4025 74.6049 76.2074C75.233 74.9646 75.1122 73.65 74.2425 72.2638L63.1534 54.6248C66.1491 53.2864 68.5168 51.3265 70.2562 48.7452C71.9957 46.1161 72.8654 43.0807 72.8654 39.6389C72.8654 36.1494 72.0682 33.0901 70.4736 30.4609C68.9275 27.8318 66.7531 25.7764 63.9507 24.2945C61.1482 22.7648 57.935 22 54.3111 22L25.4789 22C23.5576 22 22 23.5409 22 25.4417Z" fill="black"/>
</svg>

<?xml version="1.0" encoding="UTF-8" standalone="no"?><!DOCTYPE svg PUBLIC "-//W3C//DTD SVG 1.1//EN" "http://www.w3.org/Graphics/SVG/1.1/DTD/svg11.dtd"><svg width="100%" height="100%" viewBox="0 0 100 100" version="1.1" xmlns="http://www.w3.org/2000/svg" xmlns:xlink="http://www.w3.org/1999/xlink" xml:space="preserve" xmlns:serif="http://www.serif.com/" style="fill-rule:evenodd;clip-rule:evenodd;stroke-linejoin:round;stroke-miterlimit:2;"><path d="M22,25.442c0,1.901 1.558,3.442 3.479,3.442l28.832,0c3.286,0 5.991,1.004 8.117,3.011c2.126,2.008 3.189,4.589 3.189,7.744c0,2.916 -1.063,5.306 -3.189,7.17c-2.126,1.817 -4.832,2.725 -8.117,2.725l-12.531,0c-1.921,0 -3.479,1.541 -3.479,3.442c0,1.901 1.558,3.442 3.479,3.442l13.835,0l12.466,19.79c0.773,1.195 1.86,1.793 3.261,1.793c1.546,0 2.633,-0.597 3.261,-1.793c0.628,-1.243 0.507,-2.557 -0.362,-3.944l-11.089,-17.639c2.996,-1.338 5.363,-3.298 7.103,-5.88c1.739,-2.629 2.609,-5.664 2.609,-9.106c0,-3.489 -0.797,-6.549 -2.392,-9.178c-1.546,-2.629 -3.721,-4.684 -6.523,-6.166c-2.802,-1.53 -6.016,-2.294 -9.64,-2.294l-28.832,0c-1.921,0 -3.479,1.541 -3.479,3.442Z" style="fill:#fff;"/></svg>
